packages/astro-components-stencil/src/icons/gps-off.svg

<svg xmlns="http://www.w3.org/2000/svg" viewBox="0 0 24 24"><g xmlns="http://www.w3.org/2000/svg" id="gps-off" fill-rule="nonzero">
            <path d="M22 13c.55 0 1-.45 1-1s-.45-1-1-1h-1.06A8.994 8.994 0 0013 3.06V2c0-.55-.45-1-1-1s-1 .45-1 1v1.06c-.98.11-1.91.38-2.77.78l1.53 1.53a6.995 6.995 0 018.87 8.87l1.53 1.53c.4-.86.67-1.79.78-2.77H22zm-1.56 5.88L5.12 3.56a.996.996 0 10-1.41 1.41L5.04 6.3A9.061 9.061 0 003.06 11H2c-.55 0-1 .45-1 1s.45 1 1 1h1.06A8.994 8.994 0 0011 20.94V22c0 .55.45 1 1 1s1-.45 1-1v-1.06c1.77-.2 3.38-.91 4.69-1.98l1.33 1.33c.39.39 1.02.39 1.41 0 .4-.39.4-1.02.01-1.41zM12 19A6.995 6.995 0 016.46 7.73l9.81 9.81A6.972 6.972 0 0112 19z"/>
        </g></svg>

<svg width="24" height="24" viewBox="0 0 24 24" fill="none" xmlns="http://www.w3.org/2000/svg">
<path fill-rule="evenodd" clip-rule="evenodd" d="M22 13C22.55 13 23 12.55 23 12C23 11.45 22.55 11 22 11H20.94C20.48 6.83 17.17 3.52 13 3.06V2C13 1.45 12.55 1 12 1C11.45 1 11 1.45 11 2V3.06C10.02 3.17 9.09 3.44 8.23 3.84L9.76 5.37C10.46 5.13 11.22 5 12 5C15.87 5 19 8.13 19 12C19 12.79 18.87 13.54 18.63 14.24L20.16 15.77C20.56 14.91 20.83 13.98 20.94 13H22ZM20.44 18.88L5.12 3.56C4.73 3.17 4.1 3.17 3.71 3.56C3.32 3.95 3.32 4.58 3.71 4.97L5.04 6.3C3.97 7.62 3.26 9.23 3.06 11H2C1.45 11 1 11.45 1 12C1 12.55 1.45 13 2 13H3.06C3.52 17.17 6.83 20.48 11 20.94V22C11 22.55 11.45 23 12 23C12.55 23 13 22.55 13 22V20.94C14.77 20.74 16.38 20.03 17.69 18.96L19.02 20.29C19.41 20.68 20.04 20.68 20.43 20.29C20.83 19.9 20.83 19.27 20.44 18.88ZM5 12C5 15.87 8.13 19 12 19C13.61 19 15.09 18.45 16.27 17.54L6.46 7.73C5.55 8.91 5 10.39 5 12Z" fill="black"/>
</svg>
